svg/fluentui-system-icons/ic_fluent_chat_mail_20_filled.svg

<svg width="20" height="20" viewBox="0 0 20 20" fill="none" xmlns="http://www.w3.org/2000/svg">
<path d="M2.00001 7C2.00001 3.68629 4.68631 1 8.00001 1C11.3137 1 14 3.68629 14 7C14 10.3137 11.3137 13 8.00001 13C6.90639 13 5.87989 12.707 4.99618 12.195L2.65813 12.9743C2.48217 13.033 2.2882 12.9894 2.15422 12.8612C2.02025 12.7329 1.9683 12.541 2.01925 12.3626L2.73086 9.87202C2.2648 9.01862 2.00001 8.03957 2.00001 7ZM6.5 5.5C6.22386 5.5 6 5.72386 6 6C6 6.27614 6.22386 6.5 6.5 6.5H9.5C9.77614 6.5 10 6.27614 10 6C10 5.72386 9.77614 5.5 9.5 5.5H6.5ZM8.5 7.5H6.5C6.22386 7.5 6 7.72386 6 8C6 8.27614 6.22386 8.5 6.5 8.5H8.5C8.77614 8.5 9 8.27614 9 8C9 7.72386 8.77614 7.5 8.5 7.5Z" fill="#212121"/>
<path d="M12.2764 14.9472L9.87445 13.7462C10.3142 13.6243 10.7366 13.4605 11.137 13.2594L12.5 13.9409L17 11.6909V11C17 10.4477 16.5523 10 16 10H14.3264C14.4787 9.67933 14.6074 9.34525 14.7101 9H16C17.1046 9 18 9.89543 18 11V16C18 17.1046 17.1046 18 16 18H9C7.89543 18 7 17.1046 7 16V13.9291C7.3266 13.9758 7.66048 14 8 14V16C8 16.5523 8.44772 17 9 17H16C16.5523 17 17 16.5523 17 16V12.809L12.7236 14.9472C12.5828 15.0175 12.4171 15.0175 12.2764 14.9472Z" fill="#212121"/>
</svg>

<svg xmlns="http://www.w3.org/2000/svg" width="20" height="20"><path d="M2 7a6 6 0 1 1 2.996 5.195l-2.338.78a.5.5 0 0 1-.639-.612l.712-2.491A5.975 5.975 0 0 1 2 7Zm4.5-1.5a.5.5 0 0 0 0 1h3a.5.5 0 0 0 0-1h-3Zm2 2h-2a.5.5 0 0 0 0 1h2a.5.5 0 0 0 0-1Z"/><path d="m12.276 14.947-2.402-1.2c.44-.123.863-.287 1.263-.488l1.363.682 4.5-2.25V11a1 1 0 0 0-1-1h-1.674c.153-.32.281-.655.384-1H16a2 2 0 0 1 2 2v5a2 2 0 0 1-2 2H9a2 2 0 0 1-2-2v-2.07c.327.046.66.07 1 .07v2a1 1 0 0 0 1 1h7a1 1 0 0 0 1-1v-3.191l-4.276 2.138a.5.5 0 0 1-.448 0Z"/></svg>
